X:1
T:Title
%%score ( 1 2 ) ( 3 4 )
L:1/8
Q:1/4=110
M:9/8
K:Ab
V:1 treble nm="Grand Piano, Soprano"
V:2 treble 
V:3 bass nm="Choir Pad, Capri, Bixby"
V:4 bass 
V:1
 AG[CF] [DF]3 [DE]3 | EF[DG] [CA]3 [CA]3 | [EB]2 [EB] [DB]3 [CA]3 | GA[EB] [Ec]6 | %4
w: By~Samuel~Merrill~Bixby,~1894 * * * *||||
 AG[CF] [DF]3 [DE]3 | EF[DG] [CF]3 [Ec]3 | [Fd]2 [Fc] [FB]3 [FB]3 | [EA]2 [DG] [CA]6 | %8
w: ||||
 EEE [Ed]3 [EB]3 | AG[EA] [Ec]3 [EB]3 | [EB][EB][EB] [=DB]3 [DA]3 | [=DG]2 [DF] E6 | %12
w: ||||
 E[EF][DG] [CA]3 [DB]3 | [Ec][Fd][Ec] [FB]3 [FB]3 | [FA][B,G][_CF] [=CE]3 [Ec]3 | %15
w: |||
 [Ec]2 [DB] [CA]6- | [CA]3 z3 z3 |] %17
w: ||
V:2
 .C3 z3 z3 | .D3 z3 z3 | x9 | .E3 z3 z3 | .C3 z3 z3 | .D3 z3 z3 | x9 | x9 | x9 | .E3 z3 z3 | x9 | %11
 x9 | x9 | x9 | x9 | x9 | x9 |] %17
V:3
 [A,,E,]2 [A,,A,] [B,,A,]3 [B,,G,]3 | [E,G,]2 [E,B,] [A,,A,]3 [A,,A,]3 | %2
 [E,G,]2 [E,G,] [E,G,]3 [E,A,]3 | [E,B,]2 [E,G,] [A,,A,]6 | [A,,E,]2 [A,,A,] [B,,A,]3 [B,,G,]3 | %5
 [E,G,]2 [E,B,] [F,A,]3 [E,A,]3 | [D,A,]2 [D,A,] [D,D]3 [D,D]3 | [E,C]2 [E,B,] [A,,A,]6 | %8
 E,E,E, [E,G,]3 [E,G,]3 | .C3 z3 z3 | [E,G,][E,G,][E,G,] [B,,F,]3 [B,,B,]3 | %11
 [B,,B,]2 [B,,A,] [E,G,]6 | .G,3 z3 z3 | [A,,A,]2 [A,,A,] [D,A,]3 [D,A,]3 | %14
 [D,A,][D,A,][=D,A,] [E,A,]3 [E,A,]3 | [E,G,]2 [E,G,] [A,,A,]6- | [A,,A,]3 z3 z3 |] %17
V:4
 x9 | x9 | x9 | x9 | x9 | x9 | x9 | x9 | x9 | E,-[E,B,][E,C] [E,A,]3 [E,G,]3 | x9 | x9 | %12
 E,-[E,A,][E,B,] [A,,A,]3 [A,,A,]3 | x9 | x9 | x9 | x9 |] %17

